X: 1
T: Eoghainn Ian Alasdair
R: reel
M: 4/4
L: 1/8
K: Gmaj
|:e3f geB2|e3f geB2|d3e fAAA|defa gLe_e|
e3f geB2|e3f gdef|g2fg ecAG|1 FGAF G4:|2 FGAF GDEF||
|:G3B cEEE|EFGA FDEF|GBB/B/B cEEE|fgfg ecAF|
G3B cEEE|EFGA Fdef|g2fg ecAG|1 FGAF GDEF:|2 FGAF G4||

